assets/icons/cancelpay.svg

<svg width="16" height="16" viewBox="0 0 16 16" fill="none" xmlns="http://www.w3.org/2000/svg">
<path d="M12.9 15H3.1C1.94231 15 1 14.1812 1 13.1734V2.82656C1 1.81875 1.94231 1 3.1 1H12.9C14.0577 1 15 1.81875 15 2.82656V13.175C15 14.1813 14.0577 15 12.9 15ZM3.1 2.21719C2.71466 2.21719 2.4 2.49062 2.4 2.82656V13.175C2.4 13.5109 2.71466 13.7844 3.1 13.7844H12.9C13.2853 13.7844 13.6 13.5109 13.6 13.175V2.82656C13.6 2.49062 13.2853 2.21719 12.9 2.21719H3.1Z" fill="#FF2F2F"/>
<path d="M9.2 11H5.7C5.31298 11 5 10.721 5 10.3746C5 10.0298 5.31298 9.7492 5.7 9.7492H9.2C9.97236 9.7492 10.6 9.18954 10.6 8.5C10.6 7.81046 9.97236 7.2508 9.2 7.2508H5.7C5.31298 7.2508 5 6.97178 5 6.6254C5 6.27903 5.31298 6 5.7 6H9.2C10.7447 6 12 7.12091 12 8.4984C12 9.87588 10.7447 11 9.2 11Z" fill="#FF2F2F"/>
<path d="M6.70039 8.80781C6.53477 8.80781 6.36758 8.74844 6.24102 8.62969L4.40195 6.90938C4.14727 6.67188 4.14727 6.28594 4.40195 6.04844L6.24102 4.32656C6.49414 4.08906 6.90664 4.08906 7.15977 4.32656C7.41445 4.56406 7.41445 4.95 7.15977 5.1875L5.78164 6.47813L7.15977 7.76875C7.41445 8.00625 7.41445 8.39219 7.15977 8.62969C7.0332 8.75 6.86602 8.80781 6.70039 8.80781Z" fill="#FF2F2F"/>
</svg>

<svg xmlns="http://www.w3.org/2000/svg" width="16" height="16" fill="none" data-c="1"><path fill="#FF2F2F" d="M12.9 15H3.1C1.942 15 1 14.181 1 13.173V2.827C1 1.819 1.942 1 3.1 1h9.8c1.158 0 2.1.819 2.1 1.827v10.348C15 14.181 14.058 15 12.9 15M3.1 2.217c-.385 0-.7.274-.7.61v10.348c0 .336.315.61.7.61h9.8c.385 0 .7-.274.7-.61V2.827c0-.336-.315-.61-.7-.61z"/><path fill="#FF2F2F" d="M9.2 11H5.7c-.387 0-.7-.279-.7-.625 0-.345.313-.626.7-.626h3.5c.772 0 1.4-.56 1.4-1.249s-.628-1.25-1.4-1.25H5.7c-.387 0-.7-.278-.7-.625C5 6.28 5.313 6 5.7 6h3.5C10.745 6 12 7.12 12 8.498S10.745 11 9.2 11"/><path fill="#FF2F2F" d="M6.7 8.808a.67.67 0 0 1-.459-.178L4.402 6.91a.58.58 0 0 1 0-.862L6.24 4.327a.68.68 0 0 1 .919 0 .58.58 0 0 1 0 .86L5.782 6.479l1.378 1.29a.58.58 0 0 1 0 .862.66.66 0 0 1-.46.178"/></svg>
